images/product-types/quadcopter.svg

<svg width="132" height="69" viewBox="0 0 132 69" fill="none" xmlns="http://www.w3.org/2000/svg">
<path d="M12.0522 0.257913C6.50725 0.745213 1.83825 1.85073 0.575153 2.93033C-0.147547 3.54653 -0.147547 3.54653 0.342753 4.08653C0.987253 4.80623 4.05615 5.73151 7.59035 6.32281C11.5884 6.99081 20.1002 7.01622 21.3135 6.37412C22.5254 5.70612 22.9375 4.96048 22.9375 3.39268C22.9375 1.77398 22.3184 0.976689 20.7197 0.540189C19.2739 0.154289 14.9414 1.33812e-05 12.0522 0.257913Z" fill="#363636"/>
<path d="M25.7744 0.488281C25.645 0.771481 25.5161 2.5962 25.5161 4.6001C25.5161 8.6611 25.6714 8.3784 23.3242 8.5332L22.2934 8.6103L22.0351 13.6986L20.8486 13.9818C18.2695 14.6498 16.8496 16.577 17.0571 19.2762C17.185 21.2034 18.0879 22.617 19.6357 23.3631C20.7446 23.8763 21.1054 23.9012 30.8818 23.9012C36.4267 23.9012 41.019 23.9798 41.0703 24.0819C41.1211 24.2103 39.9609 33.4891 38.4907 44.7206C37.0459 55.9511 35.8075 65.7177 35.7822 66.3866C35.7309 68.0038 36.6084 69.0077 38.1299 69.0077C39.3672 69.0077 40.1416 68.3661 40.4512 67.1063C40.5806 66.5926 41.9468 56.7733 43.4693 45.285C44.9913 33.8221 46.3321 24.4163 46.4097 24.4163C46.5127 24.4163 47.4927 25.8294 48.6021 27.552C51.542 32.178 51.001 31.8689 56.2374 31.8689H60.5958V37.4987L55.463 37.5758C50.7428 37.6529 50.253 37.7028 49.5817 38.191C48.0089 39.3482 47.9567 39.606 47.9567 49.1676C47.9567 58.7018 47.9831 58.9596 49.4792 60.2174L50.3303 60.9127H81.6955L82.5461 60.2174C84.0422 58.9596 84.0666 58.7018 84.0666 49.1676C84.0666 39.6061 84.0157 39.3483 82.4436 38.191C81.7727 37.7027 81.2825 37.6529 76.5618 37.5758L71.43 37.4987V31.8689H75.7894C81.0238 31.8689 80.4828 32.178 83.4232 27.552C84.5336 25.8293 85.513 24.4163 85.6166 24.4163C85.6928 24.4163 87.0355 33.8221 88.5561 45.285C90.0786 56.7733 91.4457 66.5926 91.5747 67.1063C91.8843 68.3661 92.6567 69.0077 93.896 69.0077C95.4175 69.0077 96.2953 68.0038 96.2427 66.3866C96.2173 65.7177 94.979 55.9511 93.5337 44.7206C92.0648 33.4892 90.9028 24.2103 90.9556 24.0819C91.0064 23.9798 95.5972 23.9012 101.145 23.9012C110.92 23.9012 111.281 23.8763 112.389 23.3631C113.937 22.617 114.839 21.2034 114.968 19.2762C115.175 16.577 113.757 14.6497 111.177 13.9818L109.99 13.6986L109.734 8.6103L108.702 8.5332C106.355 8.3784 106.508 8.6611 106.508 4.6001C106.508 2.5962 106.38 0.771481 106.251 0.488281C106.045 0.128381 105.708 0 104.884 0C104.265 0 103.646 0.128394 103.464 0.308594C103.258 0.514194 103.155 1.77392 103.155 4.24072C103.155 6.70802 103.052 7.9678 102.845 8.1728C102.665 8.3525 101.944 8.48091 101.196 8.48091C99.5698 8.48091 99.5443 8.53311 99.5443 11.5913V13.8784H32.4805V11.5913C32.4805 8.53321 32.4556 8.48091 30.8306 8.48091C30.0821 8.48091 29.3604 8.3525 29.1802 8.1728C28.9727 7.9677 28.8701 6.70802 28.8701 4.24072C28.8701 1.77392 28.7671 0.514094 28.5605 0.308594C28.3798 0.128394 27.7602 0 27.1416 0C26.3169 0 25.9814 0.128481 25.7744 0.488281ZM68.6172 40.6084C71.5059 41.5068 74.0088 44.001 74.7831 46.7764C75.2216 48.3194 75.0928 50.9922 74.499 52.5596C73.8027 54.4346 71.8144 56.5694 69.9336 57.4951C68.6436 58.1367 68.1797 58.2139 66.0127 58.2139C63.8462 58.2139 63.3818 58.1368 62.0923 57.4951C60.208 56.5693 58.2232 54.4346 57.5264 52.5596C56.9336 50.9922 56.8037 48.3194 57.2427 46.7764C57.9907 44.0528 60.4922 41.5069 63.3042 40.6084C65.3164 39.9659 66.6045 39.9659 68.6172 40.6084Z" fill="#363636"/>
<path d="M63.7939 44.4375C61.7573 45.3633 60.2871 48.0869 60.7251 50.168C61.499 53.8448 65.5482 55.7207 68.7206 53.8701C70.706 52.7119 71.7119 50.3232 71.1719 48.0869C70.6035 45.6963 68.4375 43.9492 66.0127 43.9492C65.3672 43.9493 64.3872 44.1807 63.7939 44.4375Z" fill="#363636"/>
<path d="M36.0918 0.154283C32.1714 0.822283 31.5786 1.28518 31.5786 3.59808C31.5786 5.42278 32.0425 6.0141 33.8467 6.5537C35.3965 7.0161 41.0191 7.06787 44.3467 6.68207C51.2075 5.85977 55.6685 4.13766 54.0454 2.93006C52.7803 2.03016 49.1431 1.05358 44.9912 0.539977C42.5156 0.231977 36.9951 -1.67042e-05 36.0918 0.154283Z" fill="#363636"/>
<path d="M89.4844 0.257917C83.1651 0.848217 77.6201 2.339 77.6201 3.4439C77.6201 5.1661 85.4609 6.91361 93.25 6.93951C99.0537 6.93951 100.446 6.2974 100.446 3.5982C100.446 1.774 99.8272 0.976616 98.0733 0.514216C96.4238 0.102616 92.3984 1.71959e-05 89.4844 0.257917Z" fill="#363636"/>
<path d="M112.776 0.283308C110.996 0.514308 109.758 1.05383 109.346 1.77403C108.959 2.54453 109.036 4.67781 109.5 5.34581C110.428 6.65681 111.152 6.81109 116.568 6.81109C120.229 6.81109 122.37 6.68221 124.435 6.32281C127.969 5.73151 131.038 4.80623 131.683 4.08653C132.173 3.54653 132.173 3.54653 131.45 2.93033C130.109 1.79943 125.492 0.745217 119.534 0.257917C116.053 -0.0252828 115.046 -0.0252922 112.776 0.283308Z" fill="#363636"/>
</svg>

<svg width="132" height="69" fill="none" xmlns="http://www.w3.org/2000/svg"><path d="M12.05.26C6.51.75 1.84 1.86.58 2.93c-.73.62-.73.62-.24 1.16C1 4.8 4.06 5.73 7.6 6.32c4 .67 12.51.7 13.72.05 1.22-.66 1.63-1.41 1.63-2.98 0-1.62-.62-2.41-2.22-2.85C19.27.15 14.94 0 12.05.26ZM25.77.49c-.13.28-.25 2.1-.25 4.11 0 4.06.15 3.78-2.2 3.93l-1.03.08-.25 5.09-1.2.28c-2.57.67-3.99 2.6-3.78 5.3.13 1.92 1.03 3.34 2.58 4.08 1.1.52 1.47.54 11.24.54 5.55 0 10.14.08 10.19.18.05.13-1.1 9.4-2.58 20.64-1.44 11.23-2.68 21-2.7 21.67C35.72 68 36.6 69 38.12 69c1.24 0 2.01-.64 2.32-1.9.13-.52 1.5-10.34 3.02-21.83a727.78 727.78 0 0 1 2.94-20.86c.1 0 1.08 1.4 2.2 3.13 2.93 4.63 2.4 4.32 7.63 4.32h4.36v5.63l-5.14.08c-4.72.07-5.2.12-5.88.61-1.57 1.16-1.62 1.42-1.62 10.98 0 9.53.02 9.79 1.52 11.05l.85.7H81.7l.85-.7c1.5-1.26 1.52-1.52 1.52-11.05 0-9.56-.05-9.82-1.63-10.98-.67-.49-1.16-.54-5.88-.61l-5.13-.08v-5.63h4.36c5.23 0 4.7.3 7.63-4.32a25.53 25.53 0 0 1 2.2-3.13c.07 0 1.42 9.4 2.94 20.86 1.52 11.5 2.89 21.31 3.01 21.83.31 1.26 1.09 1.9 2.33 1.9 1.52 0 2.4-1 2.34-2.62-.02-.67-1.26-10.44-2.7-21.67a902.33 902.33 0 0 1-2.58-20.64c.05-.1 4.64-.18 10.19-.18 9.77 0 10.13-.02 11.24-.54 1.55-.74 2.45-2.16 2.58-4.08a4.75 4.75 0 0 0-3.8-5.3L110 13.7l-.26-5.09-1.03-.08c-2.34-.15-2.2.13-2.2-3.93 0-2-.12-3.83-.25-4.11-.2-.36-.54-.49-1.37-.49-.61 0-1.23.13-1.42.3-.2.21-.3 1.47-.3 3.94 0 2.47-.1 3.73-.31 3.93-.18.18-.9.31-1.65.31-1.63 0-1.66.05-1.66 3.11v2.29H32.48v-2.29c0-3.06-.02-3.1-1.65-3.1-.75 0-1.47-.14-1.65-.32-.2-.2-.31-1.46-.31-3.93s-.1-3.73-.3-3.93C28.37.13 27.75 0 27.13 0c-.82 0-1.16.13-1.37.49ZM68.62 40.6c2.89.9 5.39 3.4 6.16 6.17.44 1.54.31 4.21-.28 5.78a10.23 10.23 0 0 1-4.57 4.94c-1.29.64-1.75.71-3.92.71-2.16 0-2.63-.07-3.92-.71a10.22 10.22 0 0 1-4.56-4.94c-.6-1.57-.73-4.24-.29-5.78a9.58 9.58 0 0 1 6.06-6.17 7.56 7.56 0 0 1 5.32 0Z" fill="#363636"/><path d="M63.8 44.44c-2.04.92-3.51 3.65-3.07 5.73a5.43 5.43 0 0 0 8 3.7 5.3 5.3 0 0 0 2.44-5.78 5.38 5.38 0 0 0-5.16-4.14c-.64 0-1.62.23-2.22.49ZM36.1.15c-3.93.67-4.52 1.14-4.52 3.45 0 1.82.46 2.41 2.27 2.95 1.55.47 7.17.52 10.5.13 6.86-.82 11.32-2.54 9.7-3.75-1.27-.9-4.9-1.88-9.06-2.39-2.47-.3-8-.54-8.9-.39ZM89.48.26c-6.31.59-11.86 2.08-11.86 3.18 0 1.73 7.84 3.47 15.63 3.5 5.8 0 7.2-.64 7.2-3.34 0-1.83-.62-2.62-2.38-3.09C96.42.11 92.4 0 89.48.26ZM112.78.28c-1.78.23-3.02.77-3.43 1.5-.4.76-.31 2.9.15 3.57.93 1.3 1.65 1.46 7.07 1.46 3.66 0 5.8-.13 7.87-.49 3.53-.59 6.6-1.51 7.24-2.23.5-.54.5-.54-.23-1.16-1.34-1.13-5.96-2.18-11.92-2.67-3.48-.29-4.48-.29-6.75.02Z" fill="#363636"/></svg>
